X:1
T:C Major Timothy Swan, 1790
T:Nahum Tate and Nicholas Brady, 1698 (Psalm 68, Part 3) 88. 88. 88. 88.  (L. M. D.)
T:Canton
T:Transcribed from  The Columbian Harmony, 1793.
%%score [ 1 2 3 4 ]
L:1/8
Q:1/4=120
M:4/4
K:C
V:1 treble nm="Tr." snm="Tr."
V:2 treble nm="C." snm="C."
V:3 treble-8 nm="T." snm="T."
V:4 bass nm="B." snm="B."
V:1
 G4 c2 f2 | e2 e2 fe d2 | e6 G2 | (c3 d e2) c2 | Bc d2 e2 fe | d6 e2 | c4 (e2 c2) | (B3 A G2) d2 | %8
w: 1.~When mar- ching|to thy blest * a-|bode, The|won- * * dering|mul- * ti- tude sur- *|veyed The|pom- pous *|state~ _ _ of|
w: 2.~A- scribe ye|power to God * most|high, Of|hum- * * ble|Is- * rael he takes *|care, Whose|strength from *|out~ _ _ the|
 e4 (e2 c2) | f6 ed | (c2 de g2 G2 | A6) c2 | B2 G2 c2 d2 | c8 | z8 | z8 | z8 | z8 | e8 | %19
w: thee, our *|God, In *|robes~ _ _ _ _|_ of|ma- jes- ty ar-|rayed.|||||Sweet-|
w: dus- ky *|sky Darts *|shi- * * * *|* ning|ter- rors through the|air.|||||How|
 e2 e2 e2 e2 | c2 c2 c2 c2 | d2 d2 d2 d2 | B2 G2 G4 | z4 (c2 e2) | (c2 A2) (A2 G2) | A6 Bc | %26
w: sing- ing Le- vites|led the van, Loud|in- stru- ments brought|up the rear;|Be- *|tween * both *|troops a *|
w: dread- ful are the|sa- cred courts Where|God has fixed his|earth- ly throne;|His *|strength * his *|fee- ble *|
 (d2 B2) (G2 E2) | G6 z2 | z8 | z8 | z8 | z8 | z8 | z8 | z8 | f8 | (edcB A2) G2 | e>d cB A2 G2 | %38
w: vir- * gin *|train||||||||Sweet-|sing- * * * * ing|Le- * vites * led the|
w: saints * sup- *|ports;||||||||How|dread- * * * * ful|are * the * sa- cred|
 d6 d2 | e2 dc B2 G2 | f2 f2 f2 d2 | G>A Bc d2 d2 | d>c B>A G2 B2 | c2 gf e2 d2 | (c4 B2) G2 | %45
w: van, Loud|in- stru- * ments brought|up the rear; Be-|tween * both * troops a|vir- * gin * train With|voice and * tim- brel|charmed~ _ the|
w: courts Where|God has * fixed his|earth- ly throne; His|strength * his * fee- ble|saints * sup- * ports: To|God give * praise, and|him~ _ a-|
 G8 |] %46
w: ear.|
w: lone.|
V:2
 E4 E2 A2 | E2 G2 A2 G2 | G6 G2 | E4 A2 A2 | G2 G2 E2 D2 | D6 G2 | c6 G2 | G6 G2 | E6 E2 | A6 A2 | %10
w: ||||||||||
w: ||||||||||
 (G2 A2 G2 FE | F6) G2 | E2 D2 C2 D2 | E8 | (G2 E2) E2 E2 | (E2 DC D2) D2 | (E2 A2 A2) G2 | G8 | %18
w: ||||Sweet- * sing- ing|Le- * * * vites|led~ _ _ the|van,|
w: ||||How * dread- ful|are * * * the|sa- * * cred|courts|
 G8 | G6 E2 | A4 (G2 E2) | F4 (F2 A2) | G8 | z8 | z8 | z8 | z8 | z8 | z8 | z8 | z8 | z8 | z8 | z8 | %34
w: Loud|in- stru-|ments brought *|up the *|rear;||||||||||||
w: Where|God has|fixed his *|earth- ly *|throne;||||||||||||
 E8 | (AGFE F2) A2 | G2 G2 c2 G2 | E4 G4 | G2 G2 G4 | (G2 F2) E2 G2 | A6 A2 | E2 E2 G2 G2 | %42
w: Sweet-|sing- * * * * ing|Le- vites led the|van, Loud|in- stru- ments|brought * up the|rear; Be-|tween both troops a|
w: How|dread- * * * * ful|are the sa- cred|courts Where|God has fixed|his * earth- ly|throne; His|strength his fee- ble|
 G2 G2 G2 G2 | Gc cG EF G2 | (A2 G4) G2 | E8 |] %46
w: vir- gin train With|voice * and * tim- * brel|charmed * the|ear.|
w: saints sup- ports: To|God * give * praise * and|him * a-|lone.|
V:3
 c4 G2 F2 | E2 G2 c2 B2 | c6 e2 | (e3 d c2) A2 | d2 cB c2 A2 | G6 G2 | e4 c4 | d6 G2 | g4 e4 | %9
w: 1.~When mar- ching|to thy blest a-|bode, The|won- * * dering|mul- ti- * tude sur-|veyed The|pom- pous|state of|thee, our|
w: 2.~A- scribe ye|power to God most|high, Of|hum- * * ble|Is- rael * he takes|care, Whose|strength from|out the|dus- ky|
 c6 cd | (e2 dc d2 de | d6) ef | g2 g2 G2 GA | G8 | z8 | z8 | z8 | z8 | g8 | (g3 f e2) e2 | %20
w: God, in *|robes~ _ _ _ _ _|_ of *|ma- jes- ty ar- *|rayed.|||||Loud|in- * * stru-|
w: sky Darts *|shi- * * * * *|* ning *|ter- rors through the *|air.|||||Where|God * * has|
 e4 (e2 g2) | (a2 f2) d4 | d8 | z8 | z8 | z8 | z8 | z4 z2 G2 | (c3 d c2) e2 | (d4 ec) A2 | %30
w: ments brought *|up * the|rear;|||||With|voice * * and|tim- * * brel|
w: fixed his *|earth- * ly|throne;|||||To|God * * give|praise, * * and|
 (c4 ec) A2 | G8 | z8 | d8 | (cBAG c2) e2 | A2 A2 fe dc | B4 (e2 g2) | cB AG d2 d2 | B2 G2 G4 | %39
w: charmed * * the|ear.||Sweet-|sing- * * * * ing|Le- vites led * the *|van, Loud *|in- * stru- * ments brought|up the rear;|
w: him * * a-|lone.||How|dread- * * * * ful|are the sa- * cred *|courts Where *|God * has * fixed his|earth- ly throne;|
 (E2 G2) c2 B2 | (A4 f4) | e4 d2 c2 | B6 d2 | ed ef g2 g2 | e6 d2 | c8 |] %46
w: Be- * tween both|troops *|a vir- gin|train With|voice * and * tim- brel|charmed the|ear.|
w: His * strength his|fee- *|ble saints sup-|ports: To|God * give * praise, and|him a-|lone.|
V:4
 C,4 C,2 D,2 | E,2 C,2 F,2 G,2 | C,6 C2 | A,6 F,2 | G,2 G,,2 C,2 D,2 | G,6 D,2 | C4 C,4 | G,6 G,2 | %8
w: ||||||||
w: ||||||||
 (E,2 D,C, E,2) E,2 | F,6 A,2 | (C2 B,A, G,2 F,E, | D,6) C,2 | E,2 G,2 G,2 G,,2 | C,8 | z8 | z8 | %16
w: ||||||||
w: ||||||||
 z8 | z8 | C8 | (E3 D C2) C2 | A,4 C4 | D4 D,4 | G,8 | z8 | z8 | z8 | z8 | z8 | z8 | z8 | z8 | z8 | %32
w: ||||||||||||||||
w: ||||||||||||||||
 C8 | (G,A,G,A, B,2) G,2 | E,2 E,2 C2 C,2 | D,4 D,4 | E,F, G,E, C,4 | E,4 G,2 G,2 | G,8 | %39
w: Sweet-|sing- * * * * ing|Le- vites led the|van, Loud|in- * stru- * ments|brought up the|rear;|
w: How|dread- * * * * ful|are the sa- cred|courts Where|God * has * fixed|his earth- ly|throne;|
 C,4 E,2 E,2 | (F,3 E, D,2) D,2 | (E,2 C,2 G,2) G,2 | G,6 G,2 | C2 C2 CB, A,G, | %44
w: Be- tween both|troops~ _ _ a|vir- * * gin|train With|voice and tim- * brel *|
w: His strength his|fee- * * ble|saints~ _ _ sup-|ports: To|God give praise, * and *|
"^______________________________________________________\nEdited by B. C. Johnston, 2016\nMeasure 13, Treble: third note changed from B to C." (A,2 C2 E,2) G,2 | %45
w: charmed~ _ _ the|
w: him * * a-|
 C,8 |] %46
w: ear.|
w: lone.|

